X: 24374
T: Love Of The Isles, The
R: reel
M: 4/4
K: Dmajor
F>E|D3FA2D2|B3cd3 c/B/|A3FE2D2|E6 F>E|
D3FA2D2|B3cd3 c/B/|A3FE3D|D6 F>E|
D3FA2D2|B3cd3 c/B/|A2F2E2D2|E6 F>E|
D3FA2D2|B3cd3 c/B/|A3dc3d|d6 d>e|
f3ed3D|B3cd3 c/B/|A2f2e2d2|e6 d>e|
f3ed3D|B3cd3 c/B/|A3FE3D|D6 d>e|
f3ed2D2|B3cd3 B|A2f2e2d2|e6 AG|
F3GA2D2|B3cd3 G|F3AGECA,|D6 z2|

